**kern	**kern
*staff2	*staff1
*clefF4	*clefG2
*k[]	*k[]
*M3/4	*M3/4
=-	=-
16r	2dd
16GGLL	.
16BB	.
16DJJ	.
8GL	.
8GJ	.
8GL	16ccLL
.	16b
8BJ	16a
.	16gJJ
=185	=185
16r	(4ee
16GGLL	.
16C	.
16EJJ	.
8GL	4cc)
8GJ	.
8GL	(16eeLL
.	16cc)
8cJ	(16ee
.	16ccJJ)
=186	=186
16r	(4ff
16GGLL	.
16BB	.
16DJJ	.
8GL	4dd)
8GJ	.
8GL	(16ffLL
.	16dd)
8BJ	(16ff
.	16ddJJ)
=187	=187
4c	16r
.	16ccLL
.	16ee
.	16ggJJ
16r	4ccc
16CLL	.
16D	.
16EJJ	.
16FLL	(4ff 4aa
16G	.
16A	.
16BJJ	.
=188	=188
4c	16eeLL) 16gg
.	16cc
.	16ee
.	16ggJJ
16r	4ccc
16CLL	.
16D	.
16EJJ	.
16FLL	4ff 4aa
16G	.
16A	.
16BJJ	.
=189	=189
8cL	16r
.	16ggLL
8eJ	16g
.	16ggJJ
4d	16r
.	16ffLL
.	16f
.	16ffJJ
4c	16r
.	16eeLL
.	16e
.	16eeJJ
=190	=190
4B	16r
.	16ddLL
.	16d
.	16ddJJ
4c	16r
.	16eeLL
.	16e
.	16eeJJ
4d	16r
.	16ffLL
.	16f
.	16ffJJ
=191	=191
4E 4e	16r
.	16ggLL
.	16g
.	16ggJJ
4D 4d	16r
.	16ffLL
.	16f
.	16ffJJ
4C 4c	16r
.	16eeLL
.	16e
.	16eeJJ
=192	=192
16r	4g 4b 4dd
16GLL	.
16B	.
16dJJ	.
16gLL	4r
16f#	.
16g	.
16f#JJ	.
16gLL	4r
16f	.
16e	.
16dJJ	.
=193	=193
*-	*-
